src/public/svg/align-left.svg

<svg width="28" height="28" viewBox="0 0 28 28" fill="none" xmlns="http://www.w3.org/2000/svg">
<path fill-rule="evenodd" clip-rule="evenodd" d="M2.5 11.6666C2.5 11.1143 2.94772 10.6666 3.5 10.6666H19.8333C20.3856 10.6666 20.8333 11.1143 20.8333 11.6666C20.8333 12.2189 20.3856 12.6666 19.8333 12.6666H3.5C2.94772 12.6666 2.5 12.2189 2.5 11.6666Z" fill="#111111"/>
<path fill-rule="evenodd" clip-rule="evenodd" d="M2.5 7C2.5 6.44772 2.94772 6 3.5 6H24.5C25.0523 6 25.5 6.44772 25.5 7C25.5 7.55228 25.0523 8 24.5 8H3.5C2.94772 8 2.5 7.55228 2.5 7Z" fill="#111111"/>
<path fill-rule="evenodd" clip-rule="evenodd" d="M2.5 16.3334C2.5 15.7811 2.94772 15.3334 3.5 15.3334H24.5C25.0523 15.3334 25.5 15.7811 25.5 16.3334C25.5 16.8857 25.0523 17.3334 24.5 17.3334H3.5C2.94772 17.3334 2.5 16.8857 2.5 16.3334Z" fill="#111111"/>
<path fill-rule="evenodd" clip-rule="evenodd" d="M2.5 21C2.5 20.4477 2.94772 20 3.5 20H19.8333C20.3856 20 20.8333 20.4477 20.8333 21C20.8333 21.5523 20.3856 22 19.8333 22H3.5C2.94772 22 2.5 21.5523 2.5 21Z" fill="#111111"/>
</svg>

<svg width="28" height="28" fill="none" xmlns="http://www.w3.org/2000/svg"><path fill-rule="evenodd" clip-rule="evenodd" d="M2.5 11.667a1 1 0 0 1 1-1h16.333a1 1 0 1 1 0 2H3.5a1 1 0 0 1-1-1ZM2.5 7a1 1 0 0 1 1-1h21a1 1 0 1 1 0 2h-21a1 1 0 0 1-1-1ZM2.5 16.333a1 1 0 0 1 1-1h21a1 1 0 1 1 0 2h-21a1 1 0 0 1-1-1ZM2.5 21a1 1 0 0 1 1-1h16.333a1 1 0 1 1 0 2H3.5a1 1 0 0 1-1-1Z" fill="#111"/></svg>
